storage/app/icons/phosphoricons/regular/lock-laminated.svg

<svg xmlns="http://www.w3.org/2000/svg" fill="currentColor" viewBox="0 0 256 256"><path d="M208 80h-32V56a48 48 0 0 0-96 0v24H48a16 16 0 0 0-16 16v112a16 16 0 0 0 16 16h160a16 16 0 0 0 16-16V96a16 16 0 0 0-16-16M48 128h160v16H48Zm0 32h160v16H48ZM96 56a32 32 0 0 1 64 0v24H96Zm112 40v16H48V96Zm0 112H48v-16h160z"/></svg>

<svg xmlns="http://www.w3.org/2000/svg" viewBox="0 0 256 256" fill="currentColor"><path d="M208,80H176V56a48,48,0,0,0-96,0V80H48A16,16,0,0,0,32,96V208a16,16,0,0,0,16,16H208a16,16,0,0,0,16-16V96A16,16,0,0,0,208,80ZM48,128H208v16H48Zm0,32H208v16H48ZM96,56a32,32,0,0,1,64,0V80H96ZM208,96v16H48V96Zm0,112H48V192H208v16Z"/></svg>
